images/50253541.svg

<?xml version="1.0" encoding="UTF-8"?>
<svg xmlns="http://www.w3.org/2000/svg" xmlns:xlink="http://www.w3.org/1999/xlink" width="300pt" height="300pt" viewBox="0 0 300 300" version="1.1">
<defs>
<g>
<symbol overflow="visible" id="glyph0-0">
<path style="stroke:none;" d="M 0.796875 2.828125 L 0.796875 -11.28125 L 8.796875 -11.28125 L 8.796875 2.828125 Z M 1.703125 1.9375 L 7.90625 1.9375 L 7.90625 -10.390625 L 1.703125 -10.390625 Z M 1.703125 1.9375 "/>
</symbol>
<symbol overflow="visible" id="glyph0-1">
<path style="stroke:none;" d="M 10.3125 -10.765625 L 10.3125 -9.109375 C 9.78125 -9.597656 9.210938 -9.960938 8.609375 -10.203125 C 8.003906 -10.453125 7.363281 -10.578125 6.6875 -10.578125 C 5.351562 -10.578125 4.332031 -10.171875 3.625 -9.359375 C 2.914062 -8.546875 2.5625 -7.367188 2.5625 -5.828125 C 2.5625 -4.285156 2.914062 -3.109375 3.625 -2.296875 C 4.332031 -1.484375 5.351562 -1.078125 6.6875 -1.078125 C 7.363281 -1.078125 8.003906 -1.195312 8.609375 -1.4375 C 9.210938 -1.6875 9.78125 -2.054688 10.3125 -2.546875 L 10.3125 -0.90625 C 9.757812 -0.53125 9.171875 -0.242188 8.546875 -0.046875 C 7.929688 0.140625 7.28125 0.234375 6.59375 0.234375 C 4.832031 0.234375 3.441406 -0.304688 2.421875 -1.390625 C 1.410156 -2.472656 0.90625 -3.953125 0.90625 -5.828125 C 0.90625 -7.703125 1.410156 -9.175781 2.421875 -10.25 C 3.441406 -11.332031 4.832031 -11.875 6.59375 -11.875 C 7.289062 -11.875 7.945312 -11.78125 8.5625 -11.59375 C 9.1875 -11.414062 9.769531 -11.140625 10.3125 -10.765625 Z M 10.3125 -10.765625 "/>
</symbol>
<symbol overflow="visible" id="glyph0-2">
<path style="stroke:none;" d="M 1.515625 -12.15625 L 2.953125 -12.15625 L 2.953125 0 L 1.515625 0 Z M 1.515625 -12.15625 "/>
</symbol>
<symbol overflow="visible" id="glyph0-3">
<path style="stroke:none;" d="M 1.578125 -11.671875 L 3.703125 -11.671875 L 8.875 -1.90625 L 8.875 -11.671875 L 10.40625 -11.671875 L 10.40625 0 L 8.28125 0 L 3.109375 -9.765625 L 3.109375 0 L 1.578125 0 Z M 1.578125 -11.671875 "/>
</symbol>
<symbol overflow="visible" id="glyph0-4">
<path style="stroke:none;" d="M 1.578125 -11.671875 L 3.15625 -11.671875 L 3.15625 -6.890625 L 8.890625 -6.890625 L 8.890625 -11.671875 L 10.46875 -11.671875 L 10.46875 0 L 8.890625 0 L 8.890625 -5.5625 L 3.15625 -5.5625 L 3.15625 0 L 1.578125 0 Z M 1.578125 -11.671875 "/>
</symbol>
<symbol overflow="visible" id="glyph0-5">
<path style="stroke:none;" d="M 6.3125 -10.59375 C 5.164062 -10.59375 4.253906 -10.164062 3.578125 -9.3125 C 2.898438 -8.457031 2.5625 -7.296875 2.5625 -5.828125 C 2.5625 -4.359375 2.898438 -3.195312 3.578125 -2.34375 C 4.253906 -1.488281 5.164062 -1.0625 6.3125 -1.0625 C 7.457031 -1.0625 8.363281 -1.488281 9.03125 -2.34375 C 9.695312 -3.195312 10.03125 -4.359375 10.03125 -5.828125 C 10.03125 -7.296875 9.695312 -8.457031 9.03125 -9.3125 C 8.363281 -10.164062 7.457031 -10.59375 6.3125 -10.59375 Z M 6.3125 -11.875 C 7.945312 -11.875 9.253906 -11.328125 10.234375 -10.234375 C 11.210938 -9.140625 11.703125 -7.671875 11.703125 -5.828125 C 11.703125 -3.984375 11.210938 -2.507812 10.234375 -1.40625 C 9.253906 -0.3125 7.945312 0.234375 6.3125 0.234375 C 4.664062 0.234375 3.351562 -0.3125 2.375 -1.40625 C 1.394531 -2.507812 0.90625 -3.984375 0.90625 -5.828125 C 0.90625 -7.671875 1.394531 -9.140625 2.375 -10.234375 C 3.351562 -11.328125 4.664062 -11.875 6.3125 -11.875 Z M 6.3125 -11.875 "/>
</symbol>
</g>
</defs>
<g id="surface14909">
<rect x="0" y="0" width="300" height="300" style="fill:rgb(100%,100%,100%);fill-opacity:1;stroke:none;"/>
<path style="fill:none;stroke-width:1.2;stroke-linecap:butt;stroke-linejoin:miter;stroke:rgb(0%,80%,0%);stroke-opacity:1;stroke-miterlimit:10;" d="M 83.75 197.8125 L 83.75 178.6875 "/>
<path style="fill:none;stroke-width:1.2;stroke-linecap:butt;stroke-linejoin:miter;stroke:rgb(0%,0%,0%);stroke-opacity:1;stroke-miterlimit:10;" d="M 83.75 178.6875 L 83.75 159.5625 "/>
<path style=" stroke:none;fill-rule:nonzero;fill:rgb(100%,100%,100%);fill-opacity:1;" d="M 75.75 188.3125 L 91.75 188.3125 L 91.75 207.3125 L 75.75 207.3125 Z M 75.75 188.3125 "/>
<g style="fill:rgb(0%,80%,0%);fill-opacity:1;">
  <use xlink:href="#glyph0-1" x="75.75" y="203.164062"/>
  <use xlink:href="#glyph0-2" x="86.921875" y="203.164062"/>
</g>
<path style="fill:none;stroke-width:1.2;stroke-linecap:butt;stroke-linejoin:miter;stroke:rgb(0%,0%,0%);stroke-opacity:1;stroke-miterlimit:10;" d="M 83.75 159.5625 L 50.625 140.4375 "/>
<path style="fill:none;stroke-width:1.2;stroke-linecap:butt;stroke-linejoin:miter;stroke:rgb(0%,0%,0%);stroke-opacity:1;stroke-miterlimit:10;" d="M 84.9375 149.855469 L 58.4375 134.554688 "/>
<path style="fill:none;stroke-width:1.2;stroke-linecap:butt;stroke-linejoin:miter;stroke:rgb(0%,0%,0%);stroke-opacity:1;stroke-miterlimit:10;" d="M 116.875 140.4375 L 83.75 159.5625 "/>
<path style="fill:none;stroke-width:1.2;stroke-linecap:butt;stroke-linejoin:miter;stroke:rgb(0%,0%,0%);stroke-opacity:1;stroke-miterlimit:10;" d="M 50.625 140.4375 L 50.625 102.1875 "/>
<path style="fill:none;stroke-width:1.2;stroke-linecap:butt;stroke-linejoin:miter;stroke:rgb(0%,0%,0%);stroke-opacity:1;stroke-miterlimit:10;" d="M 50.625 102.1875 L 83.75 83.0625 "/>
<path style="fill:none;stroke-width:1.2;stroke-linecap:butt;stroke-linejoin:miter;stroke:rgb(0%,0%,0%);stroke-opacity:1;stroke-miterlimit:10;" d="M 58.4375 108.070312 L 84.9375 92.769531 "/>
<path style="fill:none;stroke-width:1.2;stroke-linecap:butt;stroke-linejoin:miter;stroke:rgb(0%,0%,0%);stroke-opacity:1;stroke-miterlimit:10;" d="M 83.75 83.0625 L 116.875 102.1875 "/>
<path style="fill:none;stroke-width:1.2;stroke-linecap:butt;stroke-linejoin:miter;stroke:rgb(0%,0%,0%);stroke-opacity:1;stroke-miterlimit:10;" d="M 116.875 102.1875 L 133.4375 92.625 "/>
<path style="fill:none;stroke-width:1.2;stroke-linecap:butt;stroke-linejoin:miter;stroke:rgb(0%,80%,0%);stroke-opacity:1;stroke-miterlimit:10;" d="M 133.4375 92.625 L 150 83.0625 "/>
<path style="fill:none;stroke-width:1.2;stroke-linecap:butt;stroke-linejoin:miter;stroke:rgb(0%,0%,0%);stroke-opacity:1;stroke-miterlimit:10;" d="M 116.875 102.1875 L 116.875 140.4375 "/>
<path style="fill:none;stroke-width:1.2;stroke-linecap:butt;stroke-linejoin:miter;stroke:rgb(0%,0%,0%);stroke-opacity:1;stroke-miterlimit:10;" d="M 107.875 106.011719 L 107.875 136.613281 "/>
<path style=" stroke:none;fill-rule:nonzero;fill:rgb(100%,100%,100%);fill-opacity:1;" d="M 142 73.5625 L 158 73.5625 L 158 92.5625 L 142 92.5625 Z M 142 73.5625 "/>
<g style="fill:rgb(0%,80%,0%);fill-opacity:1;">
  <use xlink:href="#glyph0-1" x="142" y="88.414062"/>
  <use xlink:href="#glyph0-2" x="153.171875" y="88.414062"/>
</g>
<path style="fill:none;stroke-width:1.2;stroke-linecap:butt;stroke-linejoin:miter;stroke:rgb(0%,0%,0%);stroke-opacity:1;stroke-miterlimit:10;" d="M 116.875 140.4375 L 133.4375 150 "/>
<path style="fill:none;stroke-width:1.2;stroke-linecap:butt;stroke-linejoin:miter;stroke:rgb(0%,0%,100%);stroke-opacity:1;stroke-miterlimit:10;" d="M 133.4375 150 L 150 159.5625 "/>
<path style="fill:none;stroke-width:1.2;stroke-linecap:butt;stroke-linejoin:miter;stroke:rgb(0%,0%,100%);stroke-opacity:1;stroke-miterlimit:10;" d="M 150 159.5625 L 166.5625 150 "/>
<path style="fill:none;stroke-width:1.2;stroke-linecap:butt;stroke-linejoin:miter;stroke:rgb(0%,0%,0%);stroke-opacity:1;stroke-miterlimit:10;" d="M 166.5625 150 L 183.125 140.4375 "/>
<path style="fill:none;stroke-width:1.2;stroke-linecap:butt;stroke-linejoin:miter;stroke:rgb(0%,0%,0%);stroke-opacity:1;stroke-miterlimit:10;" d="M 150 197.8125 L 150 178.6875 "/>
<path style="fill:none;stroke-width:1.2;stroke-linecap:butt;stroke-linejoin:miter;stroke:rgb(0%,0%,100%);stroke-opacity:1;stroke-miterlimit:10;" d="M 150 178.6875 L 150 159.5625 "/>
<path style=" stroke:none;fill-rule:nonzero;fill:rgb(100%,100%,100%);fill-opacity:1;" d="M 144 150.0625 L 156 150.0625 L 156 169.0625 L 144 169.0625 Z M 144 150.0625 "/>
<g style="fill:rgb(0%,0%,100%);fill-opacity:1;">
  <use xlink:href="#glyph0-3" x="144" y="164.914062"/>
</g>
<path style="fill:none;stroke-width:1.2;stroke-linecap:butt;stroke-linejoin:miter;stroke:rgb(0%,0%,0%);stroke-opacity:1;stroke-miterlimit:10;" d="M 183.125 140.4375 L 216.25 159.5625 "/>
<path style="fill:none;stroke-width:1.2;stroke-linecap:butt;stroke-linejoin:miter;stroke:rgb(0%,0%,0%);stroke-opacity:1;stroke-miterlimit:10;" d="M 190.9375 134.554688 L 217.4375 149.855469 "/>
<path style="fill:none;stroke-width:1.2;stroke-linecap:butt;stroke-linejoin:miter;stroke:rgb(0%,0%,0%);stroke-opacity:1;stroke-miterlimit:10;" d="M 183.125 102.1875 L 183.125 140.4375 "/>
<path style="fill:none;stroke-width:1.2;stroke-linecap:butt;stroke-linejoin:miter;stroke:rgb(0%,0%,0%);stroke-opacity:1;stroke-miterlimit:10;" d="M 216.25 159.5625 L 216.25 197.8125 "/>
<path style="fill:none;stroke-width:1.2;stroke-linecap:butt;stroke-linejoin:miter;stroke:rgb(0%,0%,0%);stroke-opacity:1;stroke-miterlimit:10;" d="M 216.25 159.5625 L 249.375 140.4375 "/>
<path style="fill:none;stroke-width:1.2;stroke-linecap:butt;stroke-linejoin:miter;stroke:rgb(0%,0%,0%);stroke-opacity:1;stroke-miterlimit:10;" d="M 216.25 197.8125 L 199.6875 207.375 "/>
<path style="fill:none;stroke-width:1.2;stroke-linecap:butt;stroke-linejoin:miter;stroke:rgb(0%,0%,100%);stroke-opacity:1;stroke-miterlimit:10;" d="M 199.6875 207.375 L 183.125 216.9375 "/>
<path style="fill:none;stroke-width:1.2;stroke-linecap:butt;stroke-linejoin:miter;stroke:rgb(0%,0%,100%);stroke-opacity:1;stroke-miterlimit:10;" d="M 183.125 216.9375 L 166.5625 207.375 "/>
<path style="fill:none;stroke-width:1.2;stroke-linecap:butt;stroke-linejoin:miter;stroke:rgb(0%,0%,0%);stroke-opacity:1;stroke-miterlimit:10;" d="M 166.5625 207.375 L 150 197.8125 "/>
<path style=" stroke:none;fill-rule:nonzero;fill:rgb(100%,100%,100%);fill-opacity:1;" d="M 171.125 207.4375 L 195.125 207.4375 L 195.125 226.4375 L 171.125 226.4375 Z M 171.125 207.4375 "/>
<g style="fill:rgb(0%,0%,100%);fill-opacity:1;">
  <use xlink:href="#glyph0-3" x="171.125" y="222.289062"/>
  <use xlink:href="#glyph0-4" x="183.09375" y="222.289062"/>
</g>
<path style="fill:none;stroke-width:1.2;stroke-linecap:butt;stroke-linejoin:miter;stroke:rgb(0%,0%,0%);stroke-opacity:1;stroke-miterlimit:10;" d="M 147.75 193.914062 L 131.1875 203.476562 "/>
<path style="fill:none;stroke-width:1.2;stroke-linecap:butt;stroke-linejoin:miter;stroke:rgb(100%,0%,0%);stroke-opacity:1;stroke-miterlimit:10;" d="M 131.1875 203.476562 L 114.625 213.039062 "/>
<path style="fill:none;stroke-width:1.2;stroke-linecap:butt;stroke-linejoin:miter;stroke:rgb(0%,0%,0%);stroke-opacity:1;stroke-miterlimit:10;" d="M 152.25 201.710938 L 135.6875 211.273438 "/>
<path style="fill:none;stroke-width:1.2;stroke-linecap:butt;stroke-linejoin:miter;stroke:rgb(100%,0%,0%);stroke-opacity:1;stroke-miterlimit:10;" d="M 135.6875 211.273438 L 119.125 220.835938 "/>
<path style=" stroke:none;fill-rule:nonzero;fill:rgb(100%,100%,100%);fill-opacity:1;" d="M 103.875 207.4375 L 116.875 207.4375 L 116.875 226.4375 L 103.875 226.4375 Z M 103.875 207.4375 "/>
<g style="fill:rgb(100%,0%,0%);fill-opacity:1;">
  <use xlink:href="#glyph0-5" x="103.875" y="222.289062"/>
</g>
<path style="fill:none;stroke-width:1.2;stroke-linecap:butt;stroke-linejoin:miter;stroke:rgb(0%,0%,0%);stroke-opacity:1;stroke-miterlimit:10;" d="M 249.375 140.4375 L 249.375 102.1875 "/>
<path style="fill:none;stroke-width:1.2;stroke-linecap:butt;stroke-linejoin:miter;stroke:rgb(0%,0%,0%);stroke-opacity:1;stroke-miterlimit:10;" d="M 240.375 136.613281 L 240.375 106.011719 "/>
<path style="fill:none;stroke-width:1.2;stroke-linecap:butt;stroke-linejoin:miter;stroke:rgb(0%,0%,0%);stroke-opacity:1;stroke-miterlimit:10;" d="M 249.375 102.1875 L 216.25 83.0625 "/>
<path style="fill:none;stroke-width:1.2;stroke-linecap:butt;stroke-linejoin:miter;stroke:rgb(0%,0%,0%);stroke-opacity:1;stroke-miterlimit:10;" d="M 216.25 83.0625 L 183.125 102.1875 "/>
<path style="fill:none;stroke-width:1.2;stroke-linecap:butt;stroke-linejoin:miter;stroke:rgb(0%,0%,0%);stroke-opacity:1;stroke-miterlimit:10;" d="M 217.4375 92.769531 L 190.9375 108.070312 "/>
</g>
</svg>

<svg xmlns="http://www.w3.org/2000/svg" xmlns:xlink="http://www.w3.org/1999/xlink" width="300pt" height="300pt" viewBox="0 0 300 300"><defs><symbol overflow="visible"><path d="M.797 2.828v-14.11h8V2.83zm.906-.89h6.203v-12.33H1.703zm0 0"/></symbol><symbol overflow="visible" id="a"><path d="M10.313-10.766v1.657c-.532-.488-1.102-.85-1.704-1.093-.606-.25-1.247-.375-1.922-.375-1.336 0-2.356.406-3.063 1.22-.71.81-1.063 1.99-1.063 3.53 0 1.543.352 2.72 1.063 3.53.707.814 1.727 1.22 3.063 1.22.675 0 1.316-.117 1.92-.36.603-.25 1.173-.617 1.704-1.11v1.642c-.554.375-1.14.664-1.765.86-.617.187-1.266.28-1.953.28-1.762 0-3.153-.54-4.172-1.625C1.41-2.474.906-3.954.906-5.83c0-1.875.504-3.348 1.516-4.422 1.02-1.082 2.41-1.625 4.172-1.625.695 0 1.35.094 1.968.28.626.18 1.208.454 1.75.83zm0 0"/></symbol><symbol overflow="visible" id="b"><path d="M1.516-12.156h1.437V0H1.516zm0 0"/></symbol><symbol overflow="visible" id="c"><path d="M1.578-11.672h2.125l5.172 9.766v-9.766h1.53V0H8.282L3.11-9.766V0H1.577zm0 0"/></symbol><symbol overflow="visible" id="d"><path d="M1.578-11.672h1.578v4.78H8.89v-4.78h1.58V0H8.89v-5.563H3.157V0H1.578zm0 0"/></symbol><symbol overflow="visible" id="e"><path d="M6.313-10.594c-1.15 0-2.06.43-2.735 1.28-.68.857-1.015 2.017-1.015 3.486 0 1.47.335 2.633 1.015 3.484.676.856 1.586 1.28 2.735 1.28 1.144.002 2.05-.424 2.718-1.28.665-.85 1-2.015 1-3.484 0-1.47-.335-2.63-1-3.484-.667-.852-1.573-1.282-2.717-1.282zm0-1.28c1.632 0 2.94.546 3.92 1.64.978 1.093 1.47 2.562 1.47 4.406 0 1.844-.492 3.32-1.47 4.422-.98 1.093-2.288 1.64-3.92 1.64-1.65 0-2.96-.546-3.938-1.64-.98-1.102-1.47-2.578-1.47-4.422 0-1.844.49-3.313 1.47-4.406.977-1.094 2.29-1.64 3.938-1.64zm0 0"/></symbol></defs><g><path fill="#fff" d="M0 0h300v300H0z"/><path d="M83.75 197.813v-19.125" stroke-width="1.2" stroke="#0c0" stroke-miterlimit="10" fill="none"/><path d="M83.75 178.688v-19.125" stroke-width="1.2" stroke="#000" stroke-miterlimit="10" fill="none"/><path d="M75.75 188.313h16v19h-16zm0 0" fill="#fff"/><g fill="#0c0"><use xlink:href="#a" x="75.75" y="203.164"/><use xlink:href="#b" x="86.922" y="203.164"/></g><path d="M83.75 159.563l-33.125-19.125M84.938 149.855l-26.5-15.3M116.875 140.438L83.75 159.563M50.625 140.438v-38.25M50.625 102.188L83.75 83.06M58.438 108.07l26.5-15.3M83.75 83.063l33.125 19.124M116.875 102.188l16.563-9.563" stroke-width="1.2" stroke="#000" stroke-miterlimit="10" fill="none"/><path d="M133.438 92.625L150 83.062" stroke-width="1.2" stroke="#0c0" stroke-miterlimit="10" fill="none"/><path d="M116.875 102.188v38.25M107.875 106.012v30.6" stroke-width="1.2" stroke="#000" stroke-miterlimit="10" fill="none"/><path d="M142 73.563h16v19h-16zm0 0" fill="#fff"/><g fill="#0c0"><use xlink:href="#a" x="142" y="88.414"/><use xlink:href="#b" x="153.172" y="88.414"/></g><path d="M116.875 140.438L133.438 150" stroke-width="1.2" stroke="#000" stroke-miterlimit="10" fill="none"/><path d="M133.438 150L150 159.563M150 159.563L166.563 150" stroke-width="1.2" stroke="#00f" stroke-miterlimit="10" fill="none"/><path d="M166.563 150l16.562-9.563M150 197.813v-19.125" stroke-width="1.2" stroke="#000" stroke-miterlimit="10" fill="none"/><path d="M150 178.688v-19.125" stroke-width="1.2" stroke="#00f" stroke-miterlimit="10" fill="none"/><path d="M144 150.063h12v19h-12zm0 0" fill="#fff"/><use xlink:href="#c" x="144" y="164.914" fill="#00f"/><path d="M183.125 140.438l33.125 19.125M190.938 134.555l26.5 15.3M183.125 102.188v38.25M216.25 159.563v38.25M216.25 159.563l33.125-19.125M216.25 197.813l-16.563 9.562" stroke-width="1.2" stroke="#000" stroke-miterlimit="10" fill="none"/><path d="M199.688 207.375l-16.563 9.563M183.125 216.938l-16.563-9.563" stroke-width="1.2" stroke="#00f" stroke-miterlimit="10" fill="none"/><path d="M166.563 207.375L150 197.812" stroke-width="1.2" stroke="#000" stroke-miterlimit="10" fill="none"/><path d="M171.125 207.438h24v19h-24zm0 0" fill="#fff"/><g fill="#00f"><use xlink:href="#c" x="171.125" y="222.289"/><use xlink:href="#d" x="183.094" y="222.289"/></g><path d="M147.75 193.914l-16.563 9.563" stroke-width="1.2" stroke="#000" stroke-miterlimit="10" fill="none"/><path d="M131.188 203.477l-16.563 9.562" stroke-width="1.2" stroke="#f00" stroke-miterlimit="10" fill="none"/><path d="M152.25 201.71l-16.563 9.563" stroke-width="1.2" stroke="#000" stroke-miterlimit="10" fill="none"/><path d="M135.688 211.273l-16.563 9.563" stroke-width="1.2" stroke="#f00" stroke-miterlimit="10" fill="none"/><path d="M103.875 207.438h13v19h-13zm0 0" fill="#fff"/><use xlink:href="#e" x="103.875" y="222.289" fill="#f00"/><path d="M249.375 140.438v-38.25M240.375 136.613v-30.6M249.375 102.188L216.25 83.06M216.25 83.063l-33.125 19.124M217.438 92.77l-26.5 15.3" stroke-width="1.2" stroke="#000" stroke-miterlimit="10" fill="none"/></g></svg>
